madamjo/images/network.svg

<svg width="16" height="14" viewBox="0 0 16 14" fill="none" xmlns="http://www.w3.org/2000/svg">
<path d="M3.45301 1.08862C3.38625 1.0205 3.30672 0.966205 3.21896 0.928835C3.13121 0.891464 3.03695 0.871752 2.94158 0.870823C2.8462 0.869894 2.75158 0.887768 2.66312 0.923422C2.57465 0.959077 2.49408 1.01181 2.42601 1.07862C1.65596 1.8442 1.04512 2.75468 0.628737 3.75753C0.212354 4.76038 -0.00133197 5.83576 6.24671e-06 6.92162C-0.00124271 8.04914 0.22926 9.16488 0.677209 10.1996C1.12516 11.2343 1.78099 12.1659 2.60401 12.9366C2.74253 13.0647 2.9255 13.1337 3.11408 13.129C3.30266 13.1243 3.48199 13.0464 3.61401 12.9116C3.93001 12.5956 3.89101 12.0926 3.58701 11.8016C2.9265 11.1722 2.4009 10.415 2.04212 9.57604C1.68335 8.73713 1.49891 7.83403 1.50001 6.92162C1.50001 5.07562 2.24101 3.40162 3.44301 2.18362C3.73301 1.88862 3.76301 1.39862 3.45301 1.08862ZM5.21401 2.85162C5.08231 2.71611 4.90226 2.63833 4.71331 2.63533C4.52437 2.63233 4.34194 2.70435 4.20601 2.83562C3.66496 3.36957 3.2355 4.0058 2.94261 4.70727C2.64973 5.40874 2.49928 6.16146 2.50001 6.92162C2.50001 8.61362 3.23001 10.1346 4.39301 11.1866C4.53038 11.3077 4.7091 11.3714 4.89211 11.3643C5.07512 11.3572 5.24839 11.28 5.37601 11.1486C5.70401 10.8206 5.64301 10.3046 5.33501 10.0146C4.91281 9.61775 4.57651 9.1385 4.34689 8.6065C4.11727 8.0745 3.99921 7.50106 4.00001 6.92162C4.00001 5.77162 4.45701 4.72762 5.20001 3.96162C5.48601 3.66762 5.53301 3.16962 5.21401 2.85162ZM10.786 2.85162C10.9177 2.71611 11.0978 2.63833 11.2867 2.63533C11.4756 2.63233 11.6581 2.70435 11.794 2.83562C12.3351 3.36957 12.7645 4.0058 13.0574 4.70727C13.3503 5.40874 13.5007 6.16146 13.5 6.92162C13.5 8.61362 12.77 10.1346 11.607 11.1866C11.4696 11.3077 11.2909 11.3714 11.1079 11.3643C10.9249 11.3572 10.7516 11.28 10.624 11.1486C10.296 10.8206 10.357 10.3046 10.665 10.0146C11.0872 9.61775 11.4235 9.1385 11.6531 8.6065C11.8827 8.0745 12.0008 7.50106 12 6.92162C12 5.77162 11.543 4.72762 10.8 3.96162C10.514 3.66762 10.467 3.16962 10.786 2.85162ZM12.547 1.08962C12.6138 1.0215 12.6933 0.967205 12.7811 0.929835C12.8688 0.892464 12.9631 0.872752 13.0584 0.871823C13.1538 0.870894 13.2484 0.888768 13.3369 0.924422C13.4254 0.960077 13.5059 1.01281 13.574 1.07962C14.3439 1.84508 14.9547 2.7554 15.3711 3.75807C15.7875 4.76074 16.0012 5.83593 16 6.92162C16.0013 8.04914 15.7708 9.16488 15.3228 10.1996C14.8749 11.2343 14.219 12.1659 13.396 12.9366C13.2575 13.0647 13.0745 13.1337 12.8859 13.129C12.6974 13.1243 12.518 13.0464 12.386 12.9116C12.07 12.5956 12.109 12.0926 12.414 11.8016C13.0743 11.1721 13.5997 10.4148 13.9583 9.57592C14.3169 8.73701 14.5012 7.83395 14.5 6.92162C14.5 5.07562 13.759 3.40162 12.557 2.18362C12.267 1.88862 12.237 1.39862 12.547 1.08862V1.08962ZM8.00001 5.42162C7.60218 5.42162 7.22065 5.57965 6.93935 5.86096C6.65804 6.14226 6.50001 6.52379 6.50001 6.92162C6.50001 7.31944 6.65804 7.70097 6.93935 7.98228C7.22065 8.26358 7.60218 8.42162 8.00001 8.42162C8.39783 8.42162 8.77936 8.26358 9.06067 7.98228C9.34197 7.70097 9.50001 7.31944 9.50001 6.92162C9.50001 6.52379 9.34197 6.14226 9.06067 5.86096C8.77936 5.57965 8.39783 5.42162 8.00001 5.42162Z" fill="#FFB52C"/>
</svg>

<?xml version="1.0" encoding="utf-8"?>
<!-- Generator: Adobe Illustrator 16.0.0, SVG Export Plug-In . SVG Version: 6.00 Build 0)  -->
<!DOCTYPE svg PUBLIC "-//W3C//DTD SVG 1.1//EN" "http://www.w3.org/Graphics/SVG/1.1/DTD/svg11.dtd">
<svg version="1.1" id="Layer_1" xmlns="http://www.w3.org/2000/svg" xmlns:xlink="http://www.w3.org/1999/xlink" x="0px" y="0px"
	 width="17px" height="17px" viewBox="-0.5 -1.5 17 17" enable-background="new -0.5 -1.5 17 17" xml:space="preserve">
<path fill="#5F666E" d="M3.453,1.089c-0.067-0.068-0.146-0.123-0.234-0.16C3.131,0.892,3.037,0.872,2.941,0.871
	C2.846,0.87,2.751,0.888,2.663,0.923S2.494,1.012,2.426,1.079c-0.77,0.766-1.381,1.676-1.797,2.679C0.212,4.76-0.001,5.836,0,6.922
	c-0.001,1.127,0.229,2.243,0.677,3.277c0.448,1.035,1.104,1.967,1.927,2.737c0.139,0.128,0.321,0.197,0.51,0.192
	c0.188-0.004,0.368-0.082,0.5-0.217c0.316-0.316,0.277-0.819-0.027-1.11c-0.661-0.63-1.186-1.387-1.545-2.226
	C1.684,8.737,1.499,7.834,1.5,6.922c0-1.846,0.741-3.521,1.943-4.738C3.733,1.889,3.763,1.398,3.453,1.089z M5.214,2.852
	c-0.131-0.135-0.312-0.213-0.5-0.216s-0.372,0.069-0.507,0.2C3.665,3.37,3.235,4.006,2.942,4.707C2.65,5.409,2.5,6.162,2.5,6.922
	c0,1.691,0.73,3.213,1.893,4.265c0.137,0.121,0.316,0.185,0.499,0.178s0.356-0.084,0.484-0.216c0.328-0.328,0.267-0.844-0.041-1.134
	C4.913,9.617,4.577,9.139,4.347,8.606C4.117,8.074,3.999,7.501,4,6.922c0-1.15,0.457-2.194,1.2-2.96
	C5.486,3.667,5.533,3.169,5.214,2.852z M10.786,2.852c0.132-0.135,0.312-0.213,0.501-0.216c0.188-0.003,0.371,0.069,0.507,0.2
	c0.541,0.534,0.971,1.17,1.264,1.872C13.35,5.409,13.5,6.162,13.5,6.922c0,1.691-0.73,3.213-1.893,4.265
	c-0.138,0.121-0.316,0.185-0.5,0.178c-0.183-0.007-0.355-0.084-0.483-0.216c-0.328-0.328-0.267-0.844,0.041-1.134
	c0.423-0.397,0.759-0.876,0.988-1.408S12.001,7.501,12,6.922c0-1.15-0.457-2.194-1.2-2.96C10.514,3.667,10.467,3.169,10.786,2.852z
	 M12.547,1.09c0.066-0.068,0.146-0.123,0.234-0.16c0.088-0.037,0.182-0.057,0.277-0.058c0.096-0.001,0.189,0.017,0.278,0.052
	s0.169,0.088,0.237,0.155c0.77,0.766,1.381,1.676,1.797,2.678c0.416,1.003,0.63,2.078,0.629,3.164
	c0.002,1.127-0.229,2.243-0.678,3.277c-0.447,1.035-1.104,1.967-1.926,2.737c-0.139,0.128-0.322,0.197-0.511,0.192
	c-0.188-0.004-0.368-0.082-0.499-0.217c-0.316-0.316-0.277-0.819,0.027-1.11c0.66-0.63,1.186-1.387,1.545-2.226
	c0.357-0.84,0.542-1.742,0.541-2.654c0-1.846-0.741-3.521-1.943-4.738C12.268,1.889,12.236,1.398,12.547,1.09L12.547,1.09z M8,5.422
	c-0.398,0-0.779,0.158-1.061,0.439S6.5,6.524,6.5,6.922c0,0.397,0.158,0.779,0.439,1.061S7.602,8.422,8,8.422
	s0.779-0.158,1.061-0.439S9.5,7.319,9.5,6.922c0-0.398-0.158-0.78-0.439-1.061S8.398,5.422,8,5.422z"/>
</svg>
